src/lib/packages/icons/src/assets/filled/file-times.svg

<svg width="24" height="24" viewBox="0 0 24 24" fill="none" xmlns="http://www.w3.org/2000/svg">
<path d="M14.75 6V3.75L19.25 8.25H17C15.42 8.25 14.75 7.58 14.75 6ZM20 9.75V18C20 20 19 21 17 21H8C6 21 5 20 5 18V6C5 4 6 3 8 3H13.25V6C13.25 8.42 14.58 9.75 17 9.75H20ZM13.561 14L15.031 12.53C15.324 12.237 15.324 11.762 15.031 11.469C14.738 11.176 14.263 11.176 13.97 11.469L12.5 12.939L11.03 11.469C10.737 11.176 10.262 11.176 9.96899 11.469C9.67599 11.762 9.67599 12.237 9.96899 12.53L11.439 14L9.96899 15.47C9.67599 15.763 9.67599 16.238 9.96899 16.531C10.115 16.677 10.307 16.751 10.499 16.751C10.691 16.751 10.8831 16.678 11.0291 16.531L12.499 15.061L13.969 16.531C14.115 16.677 14.307 16.751 14.499 16.751C14.691 16.751 14.8831 16.678 15.0291 16.531C15.3221 16.238 15.3221 15.763 15.0291 15.47L13.561 14Z" fill="currentColor"/>
</svg>

<svg xmlns="http://www.w3.org/2000/svg" width="24" height="24" fill="none"><path fill="currentColor" d="M14.75 6V3.75l4.5 4.5H17c-1.58 0-2.25-.67-2.25-2.25ZM20 9.75V18c0 2-1 3-3 3H8c-2 0-3-1-3-3V6c0-2 1-3 3-3h5.25v3c0 2.42 1.33 3.75 3.75 3.75h3ZM13.561 14l1.47-1.47a.75.75 0 1 0-1.061-1.061l-1.47 1.47-1.47-1.47a.75.75 0 1 0-1.061 1.061l1.47 1.47-1.47 1.47a.75.75 0 0 0 1.06 1.061l1.47-1.47 1.47 1.47a.748.748 0 0 0 1.06 0 .75.75 0 0 0 0-1.061L13.561 14Z"/></svg>
